X:1
T:Title
%%score { ( 1 3 ) | ( 2 4 ) }
L:1/8
Q:1/4=94
M:4/4
K:Ab
V:1 treble nm="Grand Piano"
V:3 treble 
V:2 bass 
V:4 bass 
V:1
 [CE]>[Ec] [DB]>[CA] [DG]>[G,DF] [B,=DG]>[A,DF] | [G,E]2 [Gd]2 [Gd]2 z2 | %2
w: Mrs.~W.~S.~Nickle * * * * * * *||
 [Ec]>[DB] [CA]>[FB] c>B c>B | A4 z4 | [CE]>[Ec] [DB]>[CA] [DG]>[G,DF] [B,=DG]>[A,DF] | %5
w: |||
 [G,E]2 [Gd]2 [Gd]2 z2 | [Ec]>[Ec] [Fd]>[Ec] B>A c>B | [CA]6 z2 | z2 [Fd]6 | z2 [Ec]6 | %10
w: |||||
 c>c c>c [Ac]>[Ac] [GB]>[FA] | e8 | z2 c6 |[M:9/8] z2 [Fd]- [Fd]6 | %14
w: ||||
[M:37/32] c/4-c/4-c/-<c/B/A/4-A/4-A/-<A/E/A/4-A/4-A/-<A/[Ac]/e/B/-<B/ z/4 z/4 z/4 z/4 z/4 z/ | %15
w: |
[M:4/4] [CEA]6- [CEA]/4 z/4 z/ z |] %16
w: |
V:2
 [A,,A,]>[A,,A,] [A,,E,]>[A,,E,] [B,,E,]>B,, B,,>B,, | E,2 [E,B,]2 [E,B,]2 z2 | %2
 [A,,A,]>[A,,A,] [A,,A,]>[D,A,] [E,A,E]>[E,A,D] [E,G,E]>[E,G,D] | z4 E2 z2 | %4
 [A,,A,]>[A,,A,] [A,,E,]>[A,,E,] [B,,E,]>B,, B,,>B,, | E,2 [E,B,]2 [E,B,]2 z2 | %6
 [A,,A,]>[A,,A,] [A,,A,]>[A,,A,] [E,G,D]>[E,A,C] [E,A,E]>[E,G,D] | [A,,A,]6 z2 | %8
 [D,A,]2 [D,A,]2 D,2 D,2 | [A,,A,]2 [A,,A,]2 C,2 E,2 | %10
 [A,E]>[A,E] [A,E]>[A,E] [F,A,]>[F,A,] [F,A,]>[F,A,] | B,2[K:treble] C2 D4 | %12
 [A,CA]2[K:bass] E2- [A,,E-]2 [A,,E]2 |[M:9/8] [D,F,D]2 [D,A,]- [D,A,] D,2 D,3 | %14
[M:37/32] [E,A,E]/4-[E,A,E]/4-[E,A,E]/-<[E,A,E]/[E,A,D]/[E,A,C]/4-[E,A,C]/4-[E,A,C]/-<[E,A,C]/[E,B,C]/[E,CE]/4-[E,CE]/4-[E,CE]/-<[E,CE]/[E,A,]/C/D/-<D/ z/4 z/4 z/4 z/4 z/4 z/ | %15
[M:4/4] A,,6- A,,/4 z/4 z/ z |] %16
V:3
 x8 | x8 | x8 | [A,C]6 z2 | x8 | x8 | x8 | x8 | [FA]2 z2 A,2 A,2 | [Fd]2 z2 A,2 A,2 | x8 | %11
 G2 A2 B4 | e2 z2 A,2 A,2 |[M:9/8] .B3 z A,2 A,3 | %14
[M:37/32] z/4 z/4 z/4 z/4 z/4 z/4 z/4 z/4 z/4 z/4 z/4 z/4 z/4 z/4 z/4 z/4 z/4 z/4 z/4 z/4 z/4 z/4 z/ G/4-G/4-G/4-G/4-G/4-G/4-G/-<G/[DGc]3/4- | %15
[M:4/4] [DGc]-[DGc]/4 z/4 z/ z2 z4 |] %16
V:4
 x8 | x8 | x8 | A,,6 z2 | x8 | x8 | x8 | x8 | x8 | x8 | x8 | E,8[K:treble] | z2[K:bass] A,2 z4 | %13
[M:9/8] x9 | %14
[M:37/32] z/4 z/4 z/4 z/4 z/4 z/4 z/4 z/4 z/4 z/4 z/4 z/4 z/4 z/4 z/4 z/4 z/4 z/4 z/4 z/4 z/4 z/4 z/ E,/4-E,/4-E,/4-E,/4-E,/4-E,/4-E,/-<E,/E,3/4- | %15
[M:4/4] E,-E,/4 z/4 z/ z2 z4 |] %16

